!!!COA:	Josquin des Prez
!!!CDT:	~1450-1521/08/27
!!!OPR:	Missa Mi mi
!!!ONM:	3
!!!OTL:	Credo
!!!AGN:	Mass; Credo
!!!SCT:	NJE 99.1
!!!SCA:	New Josquin Edition 99.1
!!!voices:	4
!!!voices-OPR:	4
**kern	**kern	**kern	**kern
*staff4	*staff3	*staff2	*staff1
*Ivox	*Ivox	*Ivox	*Ivox
*I"Bassus	*I"Tenor	*I"Contratenor	*I"Superius
*I'B	*I'T	*I'Ct	*I'S
*>[A,B]	*>[A,B]	*>[A,B]	*>[A,B]
*>A	*>A	*>A	*>A
*clefF4	*clefF4	*clefGv2	*clefG2
*k[]	*k[]	*k[]	*k[]
*M3/1	*M3/1	*M3/1	*M3/1
*met(O)	*met(O)	*met(O)	*met(O)
=1-	=1-	=1-	=1-
!!section: Patrem
!!!OMD:	Patrem
0.E	0.r	0.B	[0.e
=2	=2	=2	=2
0AA	1A	0c	0.e]
.	2A\	.	.
.	2A\	.	.
1r	2G\	1B	.
.	4F\	.	.
.	4E\	.	.
=3	=3	=3	=3
0.r	2D\	1r	0.f
.	2.F\	.	.
.	.	1r	.
.	4E\	.	.
.	4D\	.	.
.	4C/	.	.
.	1D	1d	.
=4	=4	=4	=4
0.r	0E	2c\	1e
.	.	1B	.
.	.	.	1r
.	.	4A/	.
.	.	4G/	.
.	1r	2.A/	1e
.	.	4B\	.
=5	=5	=5	=5
0.r	0.r	2c\	2e/
.	.	2.d\	1d
.	.	4c\	.
.	.	4B\	2.g/
.	.	4A/	.
.	.	2G/	.
.	.	.	4f/
.	.	[2c\	2e/
=6	=6	=6	=6
0.r	0.r	2c\]	1d
.	.	2B\	.
.	.	2c\	1c
.	.	4B\	.
.	.	4A/	.
.	.	2G/	2r
.	.	[2A/	[2c/
=7	=7	=7	=7
0.r	0.r	2A/]	4c/]
.	.	.	4d/
.	.	4G/	4e/
.	.	4F/	4f/
.	.	2E/	2g/
.	.	2G/	2e/
.	.	2A/	2f/
.	.	2B\	2g/
=8	=8	=8	=8
0.r	0.r	2.c\	2.a/
.	.	4B\	4g/
.	.	2A/	4f/
.	.	.	4e/
.	.	2G/	1e
.	.	1F	.
.	.	.	2d/
=9	=9	=9	=9
1AA	1r	0E	0.e
2AA/	1r	.	.
1AA	.	.	.
.	1E	1r	.
2AA/	.	.	.
=10	=10	=10	=10
1C	2E\	0.r	0.r
.	1E	.	.
2C/	.	.	.
1C	2E\	.	.
.	1G	.	.
4BB/	.	.	.
4AA/	.	.	.
=11	=11	=11	=11
2GG/	2r	0.r	0.r
1C	1G	.	.
2D\	2F\	.	.
2E\	2E\	.	.
[2F\	2D\	.	.
=12	=12	=12	=12
2F\]	1F	0.r	0.r
4E\	.	.	.
4D\	.	.	.
2C/	2G\	.	.
1F	1A	.	.
2G\	2B\	.	.
=13	=13	=13	=13
1E	2c\	0.r	1r
.	2.B\	.	.
2D\	.	.	1r
.	4A\	.	.
2C/	1A	.	.
1BB	.	.	1r
.	2G#i\	.	.
=14	=14	=14	=14
0.AA	0.A	1E	1c
.	.	2F/	2c/
.	.	1E	1c
.	.	2C/	2e/
=15	=15	=15	=15
0.r	0.r	2G/	2d/
.	.	2G/	2d/
.	.	2A/	2c/
.	.	2A/	2c/
.	.	2.G/	2g/
.	.	.	2g/
.	.	8F/L	.
.	.	8E/J	.
=16	=16	=16	=16
0.r	0.r	2F/	2a/
.	.	2F/	2a/
.	.	2E/	2.g/
.	.	1e	.
.	.	.	8f/L
.	.	.	8e/J
.	.	.	1f
.	.	2d\	.
=17	=17	=17	=17
0.r	0.r	2.c\	2e/
.	.	.	2e/
.	.	8B/L	.
.	.	8A/J	.
.	.	2B\	2.g/
.	.	2c\	.
.	.	.	4a/
.	.	2G/	2g/
.	.	2A/	2cc\
=18	=18	=18	=18
1r	0.r	2G/	2b\
.	.	1c	2.a/
1r	.	.	.
.	.	.	4g/
.	.	2B\	1g
1D	.	1A	.
.	.	.	2f#i/
=19	=19	=19	=19
1E	1r	0G	0g
1E	1r	.	.
1F	2.A\	1r	1r
.	4B\	.	.
=20	=20	=20	=20
2E\	2c\	0.r	0.r
1G	1B	.	.
4F\	2G\	.	.
4E\	.	.	.
2F\	2A\	.	.
[2E\	[2G\	.	.
=21	=21	=21	=21
2E\]	2G\]	0.r	0.r
4D\	2E\	.	.
4C/	.	.	.
2D\	2F\	.	.
1C	1E	.	.
4BB/	2C/	.	.
4AA/	.	.	.
=22	=22	=22	=22
2BB/	2D\	0.r	0.r
2.C/	2C/	.	.
.	2E\	.	.
4BB/	.	.	.
2AA/	2F\	.	.
2.GG/	1G	.	.
4AA/	.	.	.
=23	=23	=23	=23
2BB/	2.G\	0.r	0.r
2C/	.	.	.
.	4A\	.	.
2D\	2B\	.	.
2E\	1c	.	.
2F\	.	.	.
2G\	2B\	.	.
=24	=24	=24	=24
2F\	2A\	0.r	1r
2E\	1G	.	.
1C	.	.	1r
.	1c	.	.
1D	.	.	1d
.	2B\	.	.
=25	=25	=25	=25
0C	[0.c	1r	1.e
.	.	1r	.
.	.	.	2f/
1C	.	1G	1g
=26	=26	=26	=26
1F	0.c]	2F/	1a
.	.	2.c\	.
2E\	.	.	2g/
.	.	4B\	.
1F	.	4A/	1a
.	.	4G/	.
.	.	1F	.
4E\	.	.	4g/
4D\	.	.	4f/
=27	=27	=27	=27
1C	1c	1G	1e
1C	1c	2G/	1e
.	.	1c	.
1F	1A	.	1a
.	.	2d\	.
=28	=28	=28	=28
0E	1B	1.e	1g
.	2B\	.	1g
.	1G	4d\	.
.	.	4c\	.
1E	.	2B\	1g
.	2G\	2c\	.
=29	=29	=29	=29
1.D	2.A\	2.d\	2f/
.	.	.	1d
.	4G\	4c\	.
.	2F\	4B\	.
.	.	4A/	.
2C/	2E\	1A	2e/
1BB	1D	.	2f/
.	.	2G#i/	4e/
.	.	.	4d/
=30	=30	=30	=30
0AA	1.E	0A	0c
.	1.F	.	.
1AA	.	1A	1c
=31	=31	=31	=31
2.GG/	[0.G	2D/	2.B/
.	.	2E/	.
4AA/	.	.	4c/
2BB/	.	2D/	2d/
2C/	.	2.G/	2e/
2BB/	.	.	2d/
.	.	4F/	.
[2C/	.	[2E/	2e/
=32	=32	=32	=32
2C/]	1G]	2E/]	2c/
2BB/	.	2D/	1d
1AA	1C	2E/	.
.	.	2F/	1c
1GG	1D	1G	.
.	.	.	2B/
=33	=33	=33	=33
1r	1C	1G	1c
1GG	1r	1G	1r
[1C	1C	2.E/	1c
.	.	4F/	.
=34	=34	=34	=34
2C/]	0E	2G/	2c/
2.AA/	.	1A	1c
4BB/	.	.	.
4C/	.	2A/	2c/
4AA/	.	.	.
1D	1F	2.A/	1d
.	.	4B\	.
=35	=35	=35	=35
2AA/	2E\	2c\	2e/
2D\	2D\	4d\	2f/
.	.	4B\	.
2C/	2G\	2c\	4e/
.	.	.	4d/
2D\	2F\	2.A/	1d
1AA	1E	.	.
.	.	4G/	.
.	.	2A/	2c#i/
=36	=36	=36	=36
2r	0D	1.F	1d
1D	.	.	.
.	.	.	1r
2D\	.	2D/	.
2D\	1r	2F/	1d
4C/	.	2G/	.
4BB/	.	.	.
=37	=37	=37	=37
0AA	0E	2A/	1.c
.	.	4G/	.
.	.	4F/	.
.	.	2E/	.
.	.	1A	2A/
1r	2r	.	1B
.	2E\	2G#i/	.
=38	=38	=38	=38
0AA	2F\	0A	2.A/
.	2E\	.	.
.	.	.	4B/
.	1C	.	4c/
.	.	.	4d/
.	.	.	2.e/
1r	2r	1E	.
.	.	.	4f/
.	2c\	.	4g/
.	.	.	4a/
=39	=39	=39	=39
2r	2d\	2r	2b\
2.A\	2c\	2A/	2.cc\
.	1A	2c\	.
4G\	.	.	4b\
2F\	.	2d\	1a
1E	1B	1e	.
.	.	.	2g#i/
=40	=40	=40	=40
2.AA/	[0.A	2r	0a
.	.	1E	.
4BB/	.	.	.
2C/	.	.	.
2D\	.	2F/	.
2AA/	.	2E/	2r
[2D\	.	2D/	[2a/
=41	=41	=41	=41
2D\]	0.A]	2F/	4a/]
.	.	.	4g/
2C/	.	2E/	2e/
1D	.	1D	2f/
.	.	.	4e/
.	.	.	4d/
1AA	.	2.E/	2.c/
.	.	4F/	4d/
=42	=42	=42	=42
0.r	0.r	2G/	2e/
.	.	2A/	2f/
.	.	2B\	2g/
.	.	2c\	2.a/
.	.	2A/	.
.	.	.	4g/
.	.	2d\	2f/
=43	=43	=43	=43
1r	0.r	2c\	2e/
.	.	2f\	2d/
1r	.	2e\	2g/
.	.	1d	2f/
2r	.	.	1e
2AA/	.	2c#i\	.
=44	=44	=44	=44
1BB	2r	1d	1d
.	2D\	.	.
2C/	1E	1r	1r
2C/	.	.	.
1D	2F\	2r	1r
.	2F\	2A/	.
=45	=45	=45	=45
1BB	1G	1B	2r
.	.	.	2d/
1AA	1E	2c\	1e
.	.	2c\	.
1r	1D	1d	2f/
.	.	.	2f/
=46	=46	=46	=46
1E	1r	1B	2g/
.	.	.	2g/
1AA	1E	1A	2a/
.	.	.	4g/
.	.	.	4f/
2AA/	2E\	2r	1e
2AA/	[2E\	[2c\	.
=47	=47	=47	=47
2C/	2E\]	4c\]	2r
.	.	4B\	.
2C/	2C/	1A	2e/
1BB	2D\	.	2d/
.	2D\	2G#i/	2d/
1AA	2.E\	1A	1c
.	4F\	.	.
=48	=48	=48	=48
2r	2G\	1E	2B/
2AA/	2A\	.	2c/
2GG/	2B\	2r	2d/
1C	2.c\	1G	1e
.	4B\	.	.
2D\	2A\	2F/	2f/
=49	=49	=49	=49
2E\	2G\	2E/	2g/
2AA/	2A\	1c	2.f/
1C	1E	.	.
.	.	.	4e/
.	.	2c\	1e
1D	1F	2.A/	.
.	.	.	2d/
.	.	4B\	.
=50	=50	=50	=50
1AA	[0.El	1c	[0.el
1r	.	[0Bl	.
1r	.	.	.
=51	=51	=51	=51
1E	0.E]	0.B]	0.e]
0El	.	.	.
!!LO:LB:i:g=z
=52||	=52||	=52||	=52||
*>B	*>B	*>B	*>B
*clefF4	*clefF4	*clefGv2	*clefG2
*k[]	*k[]	*k[]	*k[]
*M2/1	*M2/1	*M2/1	*M2/1
*met(C2)	*met(C2)	*met(C2)	*met(C2)
*>B	*>B	*>B	*>B
!!section: Et incarnatus est
!!!OMD: Et incarnatus est
0r	0r	0r	1e
.	.	.	2e/
.	.	.	2e/
=53.	=53.	=53.	=53.
0r	0r	1E	1g
.	.	2E/	1g
.	.	2E/	.
=54	=54	=54	=54
0r	0r	1G	1d
.	.	1G	2r
.	.	.	2d/
=55.	=55.	=55.	=55.
0r	0r	1D	1.a
.	.	2r	.
.	.	2D/	4g/
.	.	.	4f/
=56	=56	=56	=56
0r	0r	1.A	2e/
.	.	.	1f
.	.	4G/	4e/
.	.	4F/	4d/
=57.	=57.	=57.	=57.
0r	0r	2E/	1c
.	.	1F	.
.	.	.	1d
.	.	4E/	.
.	.	4D/	.
=58	=58	=58	=58
0r	0r	2.C/	2.e/
.	.	4D/	4d/
.	.	4E/	2c/
.	.	4F/	.
.	.	2G/	2B/
=59.	=59.	=59.	=59.
0r	0r	2F/	2A/
.	.	1E	2G/
.	.	.	1F
.	.	2D/	.
=60	=60	=60	=60
0r	0r	1E	1E
.	.	1G	2r
.	.	.	[2e/
=61.	=61.	=61.	=61.
0r	0r	1F	2e/]
.	.	.	2d/
.	.	1E	1e
=62	=62	=62	=62
0r	0r	2r	1g
.	.	1E	.
.	.	.	1f
.	.	2D/	.
=63.	=63.	=63.	=63.
0r	0r	2.E/	2e/
.	.	.	4d/
.	.	4F/	4c/
.	.	2G/	2B/
.	.	2A/	[2c/
=64	=64	=64	=64
0r	0r	2E/	4c/]
.	.	.	4B/
.	.	2G/	1e
.	.	1F	.
.	.	.	2d/
=65.	=65.	=65.	=65.
0r	0r	1E	1e
.	.	1r	1r
=66	=66	=66	=66
0r	0E	0G	0c
=67.	=67.	=67.	=67.
0r	0F	0A	0d
=68	=68	=68	=68
0r	0E	0B	0e
=69.	=69.	=69.	=69.
0r	0C	1.c	0e
.	.	4B\	.
.	.	4A/	.
=70	=70	=70	=70
1r	0G	4B\	1r
.	.	4A/	.
.	.	4G/	.
.	.	4F/	.
1C	.	1E	[1e
=71.	=71.	=71.	=71.
1D	1F	1F	2e/]
.	.	.	2d/
1BB	1D	1G	[1d
=72	=72	=72	=72
1AA	0E	0A	2d/]
.	.	.	2c#i/
1AA	.	.	2c#i/
.	.	.	4B/
.	.	.	4c#i/
=73.	=73.	=73.	=73.
0D	0D	1r	1d
.	.	1A	1d
=74	=74	=74	=74
0r	0r	1c	1e
.	.	1B	1d
=75.	=75.	=75.	=75.
0r	0r	1G	1B
.	.	2A/	2c/
.	.	2A/	2c/
=76	=76	=76	=76
0r	1r	2G/	2B/
.	.	2A/	2A/
.	1D	1F	1d
=77.	=77.	=77.	=77.
1r	2.G\	1E	1e
.	4A\	.	.
1E	2B\	1r	1r
.	[2c\	.	.
=78	=78	=78	=78
1F	2c\]	0r	0r
.	4B\	.	.
.	4A\	.	.
1E	2G\	.	.
.	[2c\	.	.
=79.	=79.	=79.	=79.
2C/	4c\]	0r	0r
.	4B\	.	.
2D\	2A\	.	.
2E\	2G\	.	.
[2F\	[2A\	.	.
=80	=80	=80	=80
4F\]	2A\]	0r	1r
4E\	.	.	.
1D	4G\	.	.
.	4F\	.	.
.	1E	.	2r
2C#i/	.	.	2e/
=81.	=81.	=81.	=81.
1D	1D	1r	1f
1r	1C	2r	2e/
.	.	2E/	2e/
=82	=82	=82	=82
0r	0r	1F	1a
.	.	2E/	2g/
.	.	2E/	4f/
.	.	.	4e/
=83.	=83.	=83.	=83.
0r	0r	1A	1f
.	.	2G/	2e/
.	.	4F/	[2e/
.	.	4E/	.
=84	=84	=84	=84
1r	1r	1F	2e/]
.	.	.	2d/
1AA	2r	1E	1e
.	2A\	.	.
=85.	=85.	=85.	=85.
2C/	2A\	0r	0r
2D\	2A\	.	.
1E	1G	.	.
=86	=86	=86	=86
1F	1A	0r	0r
1E	1c	.	.
=87.	=87.	=87.	=87.
2D\	2B\	0r	0r
1F	2.A\	.	.
.	4G\	.	.
[2E\	4F\	.	.
.	4E\	.	.
=88	=88	=88	=88
2E\]	1F	0r	0r
2D\	.	.	.
1E	1E	.	.
=89.	=89.	=89.	=89.
1r	1r	0c	1r
1C	1G	.	1e
=90	=90	=90	=90
1C	1G	1c	1e
1C	1G	1c	1e
=91.	=91.	=91.	=91.
1D	1F	1A	1d
1GG	1G	1B	1d
=92	=92	=92	=92
1AA	1E	1A	1c
2r	2r	2r	1cc
2AA/	2E\	[2e\	.
=93.	=93.	=93.	=93.
1E	1G	2e\]	1b
.	.	1e	.
1F	1A	.	1a
.	.	2d\	.
=94	=94	=94	=94
1.E	2B\	1e	1g
.	1G	.	.
.	.	2r	1g
2C/	[2c\	2E/	.
=95.	=95.	=95.	=95.
1D	2c\]	1F	1f
.	2B\	.	.
1C	1c	1G	1e
=96	=96	=96	=96
1C	2r	1G	1e
.	2c\	.	.
2GG/	1B	1d	2d/
2GG/	.	.	[2g/
=97.	=97.	=97.	=97.
2D\	1A	1d	2g/]
2D\	.	.	2f/
2E\	[1G	1B	1g
2E\	.	.	.
=98	=98	=98	=98
1C	2G\]	2c\	1g
.	2E\	1c	.
1r	1F	.	1a
.	.	4B\	.
.	.	4A/	.
=99.	=99.	=99.	=99.
0r	1E	2B\	2g/
.	.	2c\	2e/
.	2D\	2d\	2f/
.	[2E\	[2c\	[2g/
=100	=100	=100	=100
0r	2E\]	2c\]	4g/]
.	.	.	4f/
.	2G\	1B	1e
.	1F	.	.
.	.	2A/	2d/
=101.	=101.	=101.	=101.
1r	1E	1B	1e
1E	1r	2r	1r
.	.	2G/	.
=102	=102	=102	=102
2E\	0r	2G/	0r
2E\	.	2G/	.
2E\	.	2G/	.
2E\	.	2G/	.
=103.	=103.	=103.	=103.
2D\	1r	2A/	1r
2D\	.	2B\	.
1C	2r	1c	2r
.	2G\	.	2e/
=104	=104	=104	=104
1r	2A\	1r	2f/
.	2B\	.	2g/
2r	1c	2r	1e
[2C/	.	2G/	.
=105.	=105.	=105.	=105.
2C/]	0r	2A/	1r
2BB/	.	1G	.
1AA	.	.	2r
.	.	2F#i/	2c/
=106	=106	=106	=106
1GG	1r	1G	2.B/
.	.	.	4c/
2r	1G	1r	2d/
2GG/	.	.	[2e/
=107.	=107.	=107.	=107.
2AA/	2E\	1C	4e/]
.	.	.	4d/
2AA/	2F\	.	1c
2GG/	2D\	1G	.
2GG/	2D\	.	2B/
=108	=108	=108	=108
1C	1C	1E	1c
1r	2r	2F/	2r
.	2c\	4E/	2c/
.	.	4D/	.
=109.	=109.	=109.	=109.
0r	1c	1C	1e
.	1A	1r	1f
=110	=110	=110	=110
0r	1B	0r	1g
.	2c\	.	2e/
.	2d\	.	2f/
=111.	=111.	=111.	=111.
0r	2B\	1r	2d/
.	2c\	.	1g
.	1A	2r	.
.	.	2D/	2f#i/
=112	=112	=112	=112
1r	1G	2E/	1g
.	.	4D/	.
.	.	4C/	.
1GG	1r	2E/	1r
.	.	[2D/	.
=113.	=113.	=113.	=113.
1GG	0r	2D/]	0r
.	.	1G	.
2AA/	.	.	.
2AA/	.	2F#i/	.
=114	=114	=114	=114
1GG	1r	1G	1r
1r	1G	1r	1g
=115.	=115.	=115.	=115.
0r	2A\	0r	2f/
.	1G	.	1e
.	[2c\	.	4d/
.	.	.	4c/
=116	=116	=116	=116
1GG	2c\]	2r	2d/
.	2B\	1G	2d/
1C	1c	.	1e
.	.	2G/	.
=117.	=117.	=117.	=117.
2C/	0r	2A/	0r
2D\	.	2B\	.
2E\	.	2c\	.
2F\	.	[2d\	.
=118	=118	=118	=118
2G\	0r	4d\]	0r
.	.	4c\	.
4F\	.	1c	.
4E\	.	.	.
1D	.	.	.
.	.	2B\	.
=119.	=119.	=119.	=119.
1C	1r	1c	1r
1F	1A	1c	1f
=120	=120	=120	=120
2F\	2A\	2c\	2f/
1F	1A	1c	1f
2F\	2A\	2c\	2f/
=121.	=121.	=121.	=121.
2F\	2A\	2c\	2f/
2F\	2A\	2c\	2f/
1C	1G	1c	1e
=122	=122	=122	=122
1D	1F	2B-\	2d/
.	.	1A	1f
1F	2r	.	.
.	2D\	4G/	4e/
.	.	4F/	4d/
=123.	=123.	=123.	=123.
2E\	2E\	2G/	2c/
2D\	2F\	1A	1d
1E	1G	.	.
.	.	2G/	2c#i/
=124	=124	=124	=124
0D	1F	1A	1d
.	1r	2r	2r
.	.	2B\	2d/
=125.	=125.	=125.	=125.
1r	1r	2c\	2e/
.	.	2A/	2f/
2r	2r	1G	1g
2BB/	2D\	.	.
=126	=126	=126	=126
2C/	2E\	0r	0r
2AA/	2F\	.	.
1GG	1G	.	.
=127.	=127.	=127.	=127.
2r	2r	2r	2r
1C	1G	1c	1e
2C/	2G\	2c\	2e/
=128	=128	=128	=128
2C/	2G\	2c\	2e/
2C/	2G\	2c\	2e/
1GG	1G	1B	1d
=129.	=129.	=129.	=129.
1D	1F	1A	1f
1D	1r	1d	1f
=130	=130	=130	=130
1E	1r	2B\	1g
.	.	1c	.
1F	1A	.	1a
.	.	[2d\	.
=131.	=131.	=131.	=131.
2G\	2G\	2d\]	2b-i\
2D\	2F\	1d	2.a/
1E	2G\	.	.
.	.	.	4g/
.	2G\	2c\	[2g/
=132	=132	=132	=132
1D	1A	0d	2g/]
.	.	.	2f#i/
1GG	1G	.	1g
=133.	=133.	=133.	=133.
2r	2r	0r	0r
1G	1G	.	.
2E\	2G\	.	.
=134	=134	=134	=134
2F\	2A\	0r	0r
2G\	2B\	.	.
2.C/	1c	.	.
4D\	.	.	.
=135.	=135.	=135.	=135.
2E\	1c	0r	0r
2F\	.	.	.
2E\	2c\	.	.
[2D\	4d\	.	.
.	4c\	.	.
=136	=136	=136	=136
2D\]	4B\	0r	0r
.	4A\	.	.
2C/	1A	.	.
1BB	.	.	.
.	2G#i\	.	.
=137.	=137.	=137.	=137.
1AA	1A	1r	1r
1D	1A	1d	1a
=138	=138	=138	=138
2D\	2A\	2d\	2a/
1D	1A	1d	1a
2D\	2A\	2d\	2a/
=139.	=139.	=139.	=139.
2D\	2A\	2d\	2f/
2D\	2A\	2d\	2f/
2D\	2F\	2A/	2f/
2D\	2F\	2B\	2f/
=140	=140	=140	=140
1C	1G	1c	1e
2C/	2G\	2c\	2e/
[2C/	[2G\	[2c\	[2e/
=141.	=141.	=141.	=141.
2C/]	2G\]	2c\]	2e/]
2C/	2G\	2c\	2e/
2C/	2G\	2c\	2e/
2C/	2G\	2c\	2e/
=142	=142	=142	=142
1D	1F	1A	1f
1D	1F	1A	1f
=143.	=143.	=143.	=143.
1D	1F	1A	1d
1D	1F	1A	1d
=144	=144	=144	=144
0AA	1E	0A	1c
.	2r	.	2r
.	[2E\	.	2cc\
=145.	=145.	=145.	=145.
0r	2E\]	0r	1cc
.	2F\	.	.
.	2.G\	.	1b
.	4F\	.	.
=146	=146	=146	=146
0r	2D\	0r	2.a/
.	2.A\	.	.
.	.	.	4g/
.	.	.	2f/
.	4B\	.	.
.	2c\	.	2e/
=147.	=147.	=147.	=147.
0r	2B\	1r	2d/
.	1A	.	2c/
.	.	1E	1B
.	2G#i\	.	.
=148	=148	=148	=148
0r	1A	2r	1A
.	.	2e\	.
.	2B\	2d\	2r
.	[2c\	[2e\	2a/
=149.	=149.	=149.	=149.
0r	2c\]	2e\]	2g/
.	4B\	4d\	2a/
.	4A\	4c\	.
.	2G\	2B\	2b\
.	[2A\	2A/	[2cc\
=150	=150	=150	=150
0r	2A\]	2c\	2cc\]
.	2B\	2d\	2b\
.	2c\	2e\	2a/
.	2d\	2f\	[2b\
=151.	=151.	=151.	=151.
1AA	2A\	1e	4b\]
.	.	.	4a/
.	2c\	.	1a
1E	1B	2r	.
.	.	[2e\	2g#i/
=152	=152	=152	=152
1F	1A	2e\]	1a
.	.	2d\	.
2E\	1r	2c\	1r
[2E\	.	2B\	.
=153.	=153.	=153.	=153.
2E\]	0r	2c\	0r
2D\	.	2d\	.
[1E	.	2B\	.
.	.	[2c\	.
=154	=154	=154	=154
2E\]	0r	2c\]	0r
2F\	.	4B\	.
.	.	4A/	.
2G\	.	2B\	.
[2A\	.	[2A/	.
=155.	=155.	=155.	=155.
4A\]	0r	2A/]	0r
4G\	.	.	.
4F\	.	2.d\	.
4E\	.	.	.
2D\	.	.	.
.	.	4c\	.
[2G\	.	4B\	.
.	.	4A/	.
=156	=156	=156	=156
2G\]	1E	2G/	1r
4F\	.	1c	.
4E\	.	.	.
1D	1F	.	2r
.	.	2B\	2d/
=157.	=157.	=157.	=157.
1C	1G	1c	2e/
.	.	.	1g
2r	1G	2r	.
2C/	.	2c\	4f/
.	.	.	4e/
=158	=158	=158	=158
2BB/	1G	2d\	2d/
2C/	.	2c\	2e/
1D	1F	1A	2f/
.	.	.	4e/
.	.	.	4d/
=159.	=159.	=159.	=159.
2AA/	1E	2A/	1c
2C/	.	2.G/	.
1BB	1D	.	2r
.	.	4F/	.
.	.	2D/	2d/
=160	=160	=160	=160
2AA/	1A	2r	2e/
1AA	.	2E/	2c/
.	1B-	2F/	1d
2GG/	.	2G/	.
=161.	=161.	=161.	=161.
2.AA/	1A	2E/	2.c/
.	.	2F/	.
4BB/	.	.	4d/
2C/	1A	2E/	2e/
2D\	.	2A/	2f/
=162	=162	=162	=162
2E\	2r	2G/	2e/
2F\	1A	2A/	2d/
1E	.	1B	1e
.	2G\	.	.
=163.	=163.	=163.	=163.
1AA	2E\	1c	[0el
.	1A	.	.
2r	.	2r	.
[2AA/	4G\	[2c\	.
.	4F\	.	.
=164	=164	=164	=164
2AA/]	[0El	2c\]	0e_
2GG/	.	2B\	.
2AA/	.	1A	.
4GG/	.	.	.
4FF/	.	.	.
=165.	=165.	=165.	=165.
0EEl	0E]	0Bl	0e]
==	==	==	==
*-	*-	*-	*-
!!!RDF**kern: l=long note in original notation
!!!RDF**kern: i=editorial accidental
!!!RDF**kern: V=start of tuplet marker
!!!RDF**kern: Z=end of tuplet marker
!!!ENC:	Jesse Rodin (8/14/2012)
!!!END:	2012/08/14/
!!!EED:	Jesse Rodin
!!!EEV:	2012/08/17/
!!attribution-level@Jos: 5 (doubtful)
!!!ONB:	Translated from MusicXML and edited on 2012/08/17/ by Craig Sapp
!!muse2ps: T^@{OPR}^u^@{ONM}{. }@{OTL}^C^@{COA}?\n@{SCT}^i2I150v85,85,85,150Q16
